X:1
T:They Won't Go When I Go
T:They Won't Go When I Go
T:Stevie Wonder
T:©1974
T:2
T:They Won't Go When I Go
C:Stevie Wonder
Z:All Rights Reserved
L:1/8
Q:1/4=120
M:3/4
K:A
V:1 treble nm="MusicXML Part"
%%MIDI program 0
%%MIDI control 7 102
%%MIDI control 10 64
V:1
S"F#m" FF FG/F/"C#7/G#" =FC |"F#m/A" AA AB/A/"Bm6" GC |"F#m/C#" cc cd/c/"Ddim" BC | %3
w: No more ly- ing _ friends _|wan- ting tra- gic _ ends _|though they do pre- * tend _|
w: Gone from pain- ful _ cries a-|way from sad- dened _ eyes a-|long with him I'll _ bide and|
w: greed of man will _ be _|far a- way from _ me and|my oul will be _ free and|
"A/E" ee ef"C#7" cB/A/- |"F#m" A2 z2"G#m" B2 |"A" c4"Bm" d2 |"F#m/C#" e4"Bm" d2 |"A" c4"G#m" B2 | %8
w: They won't go when I go. _|_ Oh|oh oh|oh oh|oh oh|
w: They won't go when I go. _|||||
w: They won't go when I go. _|||||
"F#m" FF FG/F/"C#7/G#" =FC |"F#m/A" AA AB/A/"Bm6" GC |"F#m/C#" cc cd/c/"Ddim" BC"^To Coda" | %11
w: all those bleed- ing _ hearts with|sor- rows to im- * part were|right here from the _ start and|
w: big men feel- ing _ small _|weak ones stan- ding- * tall _|I will watch them _ fall 'cause|
w: since my soul con- * ceived _|all that I be- * lieve the|King- dom I will _ see _|
"A/E" ee ef"C#7" cB/A/- |"F#m" A2 z C"B" A2 |"E" G2 z D"A" =G2 |"D" F2 z2"G" =F2 | %15
w: they won't go when I go. _|_ and I'll|go where I've|longed to|
w: they won't go when I go. _||||
w: _ _ _ _ _ _ _||||
"C" E2 z2"F" ^D2 |"Bb" D2 z2"Eb" C2 |"G#" =C2"C#" z4 |1"F#m" CF F4 || z6 |"F#m" A4"C#7/G#" B2 | %21
w: go so|long a-|way|from _ tears.||Hah hah|
w: ||||||
w: ||||||
"A" c4"Bm" d2 |"F#m/C#" e4"Bm" f2 |"A/E" e4"C#7" d2 |"F#m" c6 :|"F#m" AB ce fa | f6 | %27
w: hah oh|hah oh|oh oh|oh.|from _ _ _ _ _|tears.|
w: ||||||
w: ||||||
"F#m" z f/g/ fg/a/- a/ff/- |"D" f/d/f/g/ fg/a/- g/f/f- |"F#m" f/c/f/e/ f2- ff/b/- |"B7" bg/g/ f4 | %31
w: Un- clean minds mis- lead _ the pure|_ the in- no- cent will leave _ for sure,|_ for them there is _ a rest-|* ing place; _|
w: ||||
w: ||||
"F#m" z f/g/ f/g/a/g/ f<f |"D" z f/g/ a<a- a/f/e/f/- |"F#m" f/e/f/e/ f/e/f/f/ b2- | %34
w: peo- ple sin- ning just _ for fun;|they will ne- ver _ see the sun,|_ for they can ne- ver show their face-|
w: |||
w: |||
"B" b<f- f2 (3fff |"E" fe- ec/e/ c/eg/- |"E/G#" g4 c/e/f- |"A" f2 eA cB |"D" A4 ce |"C#" B2 A2 cB | %40
w: * es. _ There ain't no|room for _ the hope- less sin- ner|_ who will take|_ more than he will|give, he will|give, _ he will|
w: ||||||
w: ||||||
"C" A4 z D/D/ |"B" D2 D2 C2 | CA- A3 d |"F#m" B/A/F- F4 | z6 |"F#m" z6 |"A" z6 |"F#m" z6 | %48
w: give. He ain't|hard- ly gon-|na give _ oh|yeah. _ _ _|||||
w: ||||||||
w: ||||||||
 z4 z C"^D.S. al Coda" ||O ee ee a2 | f2 z C A2 | G2 z D =G2 | F2 z2 =F2 | E2 z2 ^D2 | D2 z2 C2 | %55
w: The|they won't go when I|go and I'll|go where I'll|go. No-|one can|keep me|
w: |||||||
w: |||||||
 =C2 f4- | f4 af | f6 | _B4 =B2 | c4 d2 | e4 f2 | e4 cB | AG AG =FC | F6 |] %64
w: from my|_ des- ti-||wa wa|wa wa|wa wa|wa They won't|go when I _ _ _|go.|
w: |||||||||
w: |||||||||

